X: 32113
T: Pet Of The Pipers
R: jig
M: 6/8
K: Amajor
|A2A cBA|ecA aec|A2A cBA|~B3 dcB|
A2A cBA|ecA aec|fga ecA|dBG A2A:|
aga fga|fba gfe|aga fga|gfe efg|
agf edc|fed cBA|fga ecA|dBG A2e|
aga fga|fba gfe|aga fga|bge d2e|
agf edc|fed cBA|fga ecA|dBG A2A|

